!!!COM: Music21
!!!OTL: Valse
!!!OMV: pezas_valses_valse-10_valse-partitura.musicxml
**kern
*I"Bagpipes
*I'Bag
*clefG^2
*k[]
*M3/8
=1
!LO:TX:a:t=Maestoso
8cccL
8ccc
8cccJ
=
8.bbL
16aaK
8ggJ
=
8aaL
8bb
8aaJ
=
4.gg
=
8cccL
8ccc
8cccJ
=
8.bbL
16aaK
8ggJ
=
8aaL
8bb
8aaJ
=
4.gg
=
8aaL
8gg
8ffJ
=
8.eeL
16ddK
8ccJ
=
8ddL
8dd
8ddJ
=
8.eeL
16ddK
8ccJ
!!linebreak:original
=
8ggL
8gg
8ffJ
=
8.eeL
16ddK
8ccJ
=
8ddL
8ee
8ddJ
=
4.cc
=||
*M3/8
!LO:TX:a:t=Maestoso
8cccL
8ccc
8cccJ
=
8.bbL
16aaK
8ggJ
=
8aaL
8bb
8aaJ
=
4.gg
=
8cccL
8ccc
8cccJ
=
8.bbL
16aaK
8ggJ
=
8aaL
8bb
8aaJ
=
4.gg
!!linebreak:original
=
8aaL
8gg
8ffJ
=
8.eeL
16ddK
8ccJ
=
8ddL
8dd
8ddJ
=
8.eeL
16ddK
8ccJ
=
8ggL
8gg
8ffJ
=
8.eeL
16ddK
8ccJ
=
8ddL
8ee
8ddJ
=
[4.cc
=
8ccL]
16ccL
16dd
16ee
16ffJJ
=||
16eeLL
16ff
16ee
16dd
16cc
16eeJJ
!!linebreak:original
=
16ddLL
16ee
16dd
16cc
16b
16ccJJ
=
8ddL
8dd
[8ccJ
=
8ccL]
16ccL
16dd
16ee
16ffJJ
=
16eeLL
16ff
16ee
16dd
16cc
16eeJJ
=
16ddLL
16ee
16dd
16cc
16b
16ddJJ
=
[4.cc
=
8ccL]
16ccL
16dd
16ee
16ffJJ
=||
16eeLL
16ff
16ee
16dd
16cc
16eeJJ
!!linebreak:original
=
16ddLL
16ee
16dd
16cc
16b
16ccJJ
=
8ddL
8dd
[8ccJ
=
8ccL]
16ccL
16dd
16ee
16ffJJ
=
16eeLL
16ff
16ee
16dd
16cc
16eeJJ
=
16ddLL
16ee
16dd
16cc
16b
16ddJJ
=
[4.cc
=
4.cc]
==
*-
